X:95
T:Polska fr J\"amtland
R:Polska
O:Sweden
M:3/4
C:e. Kristian Oskarsson
A:J\"amtland
K:D
A,>C (3EGE C>E|D>D (3FGF D>F|A>d B>A G>F|\
E>D C>D (3EDC|1 D>F (3DFD A,2 :|2 D2 D4 :|
A>d d<A F>G | (3ABA (3GAG F2\
|1 A>B B<A F>G (3ABA G<F D2 :|2 \
E>F (3GEG (3FDF | (3EDC D4 :|
